F[ERK2
CUT[WER LIEBEN WILL MUSS LEIDEN]
REG[Europa, Mitteleuropa, Deutschland, Hessen, Darmstadt]
KEY[E0617A 16  C 6/8]
MEL[-5_  1__-3_-6__-5_  -5_-4_0__.
    -71  2__-4_-6__-5_  -3__0__.
    -5_  3__2_1__-7_  -7_-6_0__.
    -6_  -5_1_3_4_2_-7_  1__.0__ //] >>
FCT[Liebes - Lied]
